icon-themes/colibre_svg/cmd/sc_pasteonlyformula.svg

<svg viewBox="0 0 16 16" xmlns="http://www.w3.org/2000/svg">/&amp;amp;gt;<path d="m2 2c-.554 0-1 .446-1 1v12c0 .554.446 1 1 1h12c.554 0 1-.446 1-1v-12c0-.554-.446-1-1-1h-1v2c0 .554-.446 1-1 1h-8c-.554 0-1-.446-1-1v-2z" fill="#eac282"/><path d="m8 0a2 2 0 0 0 -2 2h-2v1c-.554 0-1 .446-1 1v10c0 .554.446 1 1 1h8c.554 0 1-.446 1-1v-10c0-.554-.446-1-1-1v-1h-2a2 2 0 0 0 -2-2zm0 1a1 1 0 0 1 1 1 1 1 0 0 1 -1 1 1 1 0 0 1 -1-1 1 1 0 0 1 .0058594-.0996094 1 1 0 0 1 .9941406-.9003906z" fill="#808080"/><path d="m4 4v10h8v-10z" fill="#fdf9f3"/><g fill="#4d82b8" stroke-width=".5"><path d="m7.759791 5c-.265613 0-.512566.0415161-.740234.125-.2276687.0802729-.4293706.1974385-.6064458.3515625-.1739128.1509132-.3178067.3370405-.4316406.5585938-.110672.2183423-.1822467.4643769-.2138672.7373046l-.0429687.2275391h-.6640625l-.056641.628906c-.012648.08991.0053.158867.052734.207031.047431.04495.1104017.07574.1894531.0918l.3740242.072263-.6015625 5h.4882812c.1707509 0 .3035756-.04319.3984375-.129883.094862-.08348.1647156-.205665.2089844-.366211l.2460937-.852539.4365235-3.651367h1.0986067l.104493-1h-1.1318107l.033203-.1894531c.018972-.1733894.053899-.3186961.1044927-.4375.05376-.118804.120167-.2152114.199218-.2890625.08221-.073851.17667-.1270707.28418-.1591797s.225824-.047851.355469-.047851c.0917.0000001.174343-.00836.24707-.024414.07273-.016055.117002-.060915.132813-.1347656l.109375-.6308599c-.186562-.0577966-.378172-.0869142-.574219-.0869142z"/><path d="m7.636719 9 .821289 1.840821-1.458008 2.159179h.883789c.06025 0 .111408-.01905.153321-.05664.04191-.04028.0802-.08325.114258-.128907l.730468-1.188476.04004-.06445c.01309-.02149.02596-.04541.03906-.07227l.50293 1.325195c.02095.04834.04927.09131.08594.128907.03667.0376.08911.05664.15722.05664h.908209l-.908204-2.166991 1.292969-1.833008h-.90332c-.04715 0-.08802.01197-.12207.03613-.03405.02417-.06848.05884-.102539.104492l-.557618.938477c-.02095.02954-.04026.05933-.05859.08887-.01572.02686-.03085.05542-.04395.08496l-.447264-1.127929c-.02096-.04565-.04638-.07788-.0752-.09668-.02881-.0188-.07611-.02832-.141597-.02832z"/></g></svg>

<?xml version="1.0" encoding="UTF-8" standalone="no"?>
<svg xmlns="http://www.w3.org/2000/svg" xmlns:sodipodi="http://sodipodi.sourceforge.net/DTD/sodipodi-0.dtd" xmlns:inkscape="http://www.inkscape.org/namespaces/inkscape" viewBox="0 0 16 16" version="1.1">
 <metadata id="metadata12">
  <rdf:RDF>
   <cc:Work>
    <dc:format>image/svg+xml</dc:format>
    <dc:type rdf:resource="http://purl.org/dc/dcmitype/StillImage"/>
   </cc:Work>
  </rdf:RDF>
 </metadata>
 <defs id="defs10"/>
 <sodipodi:namedview pagecolor="#ffffff" bordercolor="#666666" borderopacity="1" objecttolerance="10" gridtolerance="10" guidetolerance="10" inkscape:pageopacity="0" inkscape:pageshadow="2" inkscape:window-width="2560" inkscape:window-height="1319" id="namedview8" showgrid="true" inkscape:zoom="20.85965" inkscape:cx="-6.6804332" inkscape:cy="-4.1290944" inkscape:window-x="0" inkscape:window-y="30" inkscape:window-maximized="1" inkscape:current-layer="svg6">
  <inkscape:grid type="xygrid" id="grid820"/>
 </sodipodi:namedview>




     /&amp;gt;
   <path d="m2 2c-.554 0-1 .446-1 1v12c0 .554.446 1 1 1h12c.554 0 1-.446 1-1v-12c0-.554-.446-1-1-1h-1v2c0 .554-.446 1-1 1h-8c-.554 0-1-.446-1-1v-2z" fill="#eac282" id="path2"/> <path inkscape:connector-curvature="0" d="M 8,0 A 2,2 0 0 0 6,2 H 4 V 3 C 3.446,3 3,3.446 3,4 v 10 c 0,0.554 0.446,1 1,1 h 8 c 0.554,0 1,-0.446 1,-1 V 4 C 13,3.446 12.554,3 12,3 V 2 H 10 A 2,2 0 0 0 8,0 Z M 8,1 A 1,1 0 0 1 9,2 1,1 0 0 1 8,3 1,1 0 0 1 7,2 1,1 0 0 1 7.0058594,1.9003906 1,1 0 0 1 8,1 Z" id="rect816" opacity="1" stroke-dasharray="none" stroke-opacity="1" fill="#808080" stroke="none" stroke-linejoin="round" fill-opacity="1" stroke-linecap="round" stroke-width="2" stroke-miterlimit="4"/> <path inkscape:connector-curvature="0" d="m 4,4 v 10 h 8 V 4 Z" id="rect818" opacity="1" stroke-dasharray="none" stroke-opacity="1" fill="#fdf9f3" stroke="none" stroke-linejoin="round" fill-opacity="1" stroke-linecap="round" stroke-width="2" stroke-miterlimit="4"/> <path inkscape:connector-curvature="0" d="M 7.759791,5 C 7.494178,5 7.247225,5.0415161 7.019557,5.125 6.7918883,5.2052729 6.5901864,5.3224385 6.4131112,5.4765625 6.2391984,5.6274757 6.0953045,5.813603 5.9814706,6.0351563 5.8707986,6.2534986 5.7992239,6.4995332 5.7676034,6.7724609 L 5.7246347,7 H 5.0605722 l -0.056641,0.628906 c -0.012648,0.08991 0.0053,0.158867 0.052734,0.207031 0.047431,0.04495 0.1104017,0.07574 0.1894531,0.0918 L 5.6201425,8 5.01858,13 h 0.4882812 c 0.1707509,0 0.3035756,-0.04319 0.3984375,-0.129883 0.094862,-0.08348 0.1647156,-0.205665 0.2089844,-0.366211 L 6.3603768,11.651367 6.7969003,8 H 7.895507 L 8,7 H 6.8681893 l 0.033203,-0.1894531 c 0.018972,-0.1733894 0.053899,-0.3186961 0.1044927,-0.4375 0.05376,-0.118804 0.120167,-0.2152114 0.199218,-0.2890625 0.08221,-0.073851 0.17667,-0.1270707 0.28418,-0.1591797 0.10751,-0.032109 0.225824,-0.047851 0.355469,-0.047851 0.0917,1e-7 0.174343,-0.00836 0.24707,-0.024414 0.07273,-0.016055 0.117002,-0.060915 0.132813,-0.1347656 L 8.33401,5.0869142 C 8.147448,5.0291176 7.955838,5 7.759791,5 Z" id="path2-3" sodipodi:nodetypes="scccccccccccsccccccccccsccccs" fill="#4d82b8" stroke-width="0.5"/> <path inkscape:connector-curvature="0" d="M 7.636719,9 8.458008,10.840821 7,13 h 0.883789 c 0.06025,0 0.111408,-0.01905 0.153321,-0.05664 0.04191,-0.04028 0.0802,-0.08325 0.114258,-0.128907 l 0.730468,-1.188476 0.04004,-0.06445 c 0.01309,-0.02149 0.02596,-0.04541 0.03906,-0.07227 l 0.50293,1.325195 c 0.02095,0.04834 0.04927,0.09131 0.08594,0.128907 0.03667,0.0376 0.08911,0.05664 0.15722,0.05664 h 0.908209 L 9.707031,10.833008 11,9 H 10.09668 C 10.04953,9 10.00866,9.01197 9.97461,9.03613 9.94056,9.0603 9.90613,9.09497 9.872071,9.140622 l -0.557618,0.938477 c -0.02095,0.02954 -0.04026,0.05933 -0.05859,0.08887 -0.01572,0.02686 -0.03085,0.05542 -0.04395,0.08496 L 8.764649,9.125 C 8.743689,9.07935 8.718269,9.04712 8.689449,9.02832 8.660639,9.00952 8.613339,9 8.547852,9 Z" id="path2-3-6" sodipodi:nodetypes="cccscccccccscccscccccccsc" fill="#4d82b8" stroke-width="0.5"/></svg>
